images/logo_white.svg

<svg width="58" height="80" viewBox="0 0 58 80" fill="none" xmlns="http://www.w3.org/2000/svg">
<path d="M0.335938 65.1566V56.4713H3.86739C4.51626 56.4713 5.05746 56.566 5.491 56.7554C5.92454 56.9448 6.25041 57.2078 6.46861 57.5442C6.68681 57.8778 6.79592 58.2624 6.79592 58.6978C6.79592 59.037 6.72701 59.3353 6.5892 59.5926C6.45138 59.847 6.26189 60.0563 6.02072 60.2202C5.78242 60.3814 5.50966 60.4959 5.20245 60.5637V60.6486C5.53837 60.6627 5.85276 60.756 6.14561 60.9285C6.44133 61.1009 6.68107 61.3427 6.86482 61.6537C7.04857 61.9618 7.14045 62.3294 7.14045 62.7563C7.14045 63.2171 7.02417 63.6285 6.79161 63.9904C6.56192 64.3494 6.22169 64.6336 5.77093 64.8428C5.32017 65.052 4.76461 65.1566 4.10426 65.1566H0.335938ZM2.20072 63.6554H3.72097C4.24064 63.6554 4.61962 63.5578 4.85792 63.3627C5.09622 63.1648 5.21537 62.9019 5.21537 62.5739C5.21537 62.3336 5.15652 62.1216 5.0388 61.9378C4.92109 61.754 4.75313 61.6098 4.53492 61.5052C4.31959 61.4006 4.06263 61.3483 3.76403 61.3483H2.20072V63.6554ZM2.20072 60.1057H3.58315C3.83868 60.1057 4.0655 60.0619 4.2636 59.9743C4.46458 59.8838 4.62249 59.7566 4.73734 59.5926C4.85505 59.4286 4.91391 59.2321 4.91391 59.0031C4.91391 58.6893 4.8005 58.4362 4.57368 58.244C4.34974 58.0517 4.03104 57.9556 3.61761 57.9556H2.20072V60.1057Z" fill="#F2F2F2"/>
<path d="M8.31939 65.1566V58.6426H10.154V65.1566H8.31939ZM9.24102 57.8029C8.96826 57.8029 8.73427 57.7139 8.53903 57.5357C8.34667 57.3548 8.25049 57.1385 8.25049 56.8869C8.25049 56.6381 8.34667 56.4246 8.53903 56.2465C8.73427 56.0656 8.96826 55.9751 9.24102 55.9751C9.51377 55.9751 9.74633 56.0656 9.93869 56.2465C10.1339 56.4246 10.2315 56.6381 10.2315 56.8869C10.2315 57.1385 10.1339 57.3548 9.93869 57.5357C9.74633 57.7139 9.51377 57.8029 9.24102 57.8029Z" fill="#F2F2F2"/>
<path d="M11.6581 65.1566V56.4713H13.4928V59.7368H13.5487C13.6291 59.5615 13.7454 59.3834 13.8976 59.2024C14.0526 59.0186 14.2536 58.866 14.5005 58.7444C14.7503 58.62 15.0604 58.5578 15.4308 58.5578C15.9131 58.5578 16.3581 58.6822 16.7658 58.931C17.1735 59.177 17.4994 59.5488 17.7434 60.0464C17.9875 60.5411 18.1095 61.1617 18.1095 61.9081C18.1095 62.6347 17.9903 63.2482 17.752 63.7487C17.5166 64.2463 17.195 64.6237 16.7873 64.881C16.3825 65.1354 15.9289 65.2627 15.4264 65.2627C15.0704 65.2627 14.7675 65.2047 14.5177 65.0888C14.2708 64.9729 14.0684 64.8273 13.9105 64.652C13.7526 64.4738 13.632 64.2943 13.5487 64.1134H13.4669V65.1566H11.6581ZM13.454 61.8996C13.454 62.287 13.5085 62.6248 13.6177 62.9132C13.7268 63.2016 13.8847 63.4263 14.0914 63.5875C14.2981 63.7458 14.5493 63.825 14.845 63.825C15.1436 63.825 15.3963 63.7444 15.603 63.5833C15.8097 63.4193 15.9662 63.1931 16.0724 62.9047C16.1815 62.6135 16.2361 62.2785 16.2361 61.8996C16.2361 61.5236 16.183 61.1928 16.0768 60.9073C15.9705 60.6217 15.814 60.3983 15.6073 60.2372C15.4006 60.076 15.1465 59.9955 14.845 59.9955C14.5465 59.9955 14.2938 60.0732 14.0871 60.2287C13.8832 60.3842 13.7268 60.6047 13.6177 60.8903C13.5085 61.1758 13.454 61.5123 13.454 61.8996Z" fill="#F2F2F2"/>
<path d="M21.1683 56.4713V65.1566H19.3337V56.4713H21.1683Z" fill="#F2F2F2"/>
<path d="M22.6379 65.1566V58.6426H24.4726V65.1566H22.6379ZM23.5596 57.8029C23.2868 57.8029 23.0528 57.7139 22.8576 57.5357C22.6652 57.3548 22.569 57.1385 22.569 56.8869C22.569 56.6381 22.6652 56.4246 22.8576 56.2465C23.0528 56.0656 23.2868 55.9751 23.5596 55.9751C23.8323 55.9751 24.0649 56.0656 24.2572 56.2465C24.4525 56.4246 24.5501 56.6381 24.5501 56.8869C24.5501 57.1385 24.4525 57.3548 24.2572 57.5357C24.0649 57.7139 23.8323 57.8029 23.5596 57.8029Z" fill="#F2F2F2"/>
<path d="M28.931 65.2839C28.2621 65.2839 27.6835 65.1439 27.1954 64.864C26.7102 64.5813 26.3356 64.1883 26.0714 63.685C25.8073 63.179 25.6752 62.5923 25.6752 61.9251C25.6752 61.2522 25.8073 60.6641 26.0714 60.1609C26.3356 59.6548 26.7102 59.2618 27.1954 58.9819C27.6835 58.6992 28.2621 58.5578 28.931 58.5578C29.6 58.5578 30.1771 58.6992 30.6623 58.9819C31.1504 59.2618 31.5265 59.6548 31.7906 60.1609C32.0548 60.6641 32.1869 61.2522 32.1869 61.9251C32.1869 62.5923 32.0548 63.179 31.7906 63.685C31.5265 64.1883 31.1504 64.5813 30.6623 64.864C30.1771 65.1439 29.6 65.2839 28.931 65.2839ZM28.9396 63.8844C29.244 63.8844 29.4981 63.7995 29.7019 63.6299C29.9058 63.4574 30.0594 63.2228 30.1627 62.9259C30.269 62.6291 30.3221 62.2912 30.3221 61.9123C30.3221 61.5335 30.269 61.1956 30.1627 60.8988C30.0594 60.6019 29.9058 60.3672 29.7019 60.1948C29.4981 60.0223 29.244 59.9361 28.9396 59.9361C28.6324 59.9361 28.374 60.0223 28.1644 60.1948C27.9577 60.3672 27.8012 60.6019 27.695 60.8988C27.5917 61.1956 27.54 61.5335 27.54 61.9123C27.54 62.2912 27.5917 62.6291 27.695 62.9259C27.8012 63.2228 27.9577 63.4574 28.1644 63.6299C28.374 63.7995 28.6324 63.8844 28.9396 63.8844Z" fill="#F2F2F2"/>
<path d="M36.8983 58.6426V59.9997H32.9147V58.6426H36.8983ZM33.8191 57.082H35.6537V63.1549C35.6537 63.3217 35.6796 63.4518 35.7312 63.5451C35.7829 63.6356 35.8547 63.6992 35.9466 63.7359C36.0413 63.7727 36.1504 63.7911 36.2739 63.7911C36.36 63.7911 36.4461 63.784 36.5323 63.7699C36.6184 63.7529 36.6844 63.7402 36.7304 63.7317L37.0189 65.0761C36.9271 65.1043 36.7978 65.1368 36.6313 65.1736C36.4648 65.2132 36.2624 65.2372 36.0241 65.2457C35.5819 65.2627 35.1943 65.2047 34.8613 65.0718C34.5311 64.9389 34.2742 64.7325 34.0904 64.4526C33.9067 64.1727 33.8162 63.8193 33.8191 63.3924V57.082Z" fill="#F2F2F2"/>
<path d="M41.037 65.2839C40.3566 65.2839 39.7709 65.1481 39.2799 64.8767C38.7918 64.6025 38.4157 64.2152 38.1516 63.7147C37.8874 63.2115 37.7554 62.6163 37.7554 61.9293C37.7554 61.2593 37.8874 60.6712 38.1516 60.1651C38.4157 59.659 38.7875 59.2646 39.267 58.9819C39.7493 58.6992 40.3149 58.5578 40.9638 58.5578C41.4002 58.5578 41.8065 58.6271 42.1826 58.7656C42.5616 58.9013 42.8918 59.1063 43.1731 59.3805C43.4574 59.6548 43.6784 59.9997 43.8364 60.4153C43.9943 60.8281 44.0732 61.3116 44.0732 61.8657V62.3619H38.4875V61.2423H42.3463C42.3463 60.9822 42.2888 60.7518 42.174 60.551C42.0591 60.3503 41.8998 60.1934 41.6959 60.0803C41.495 59.9644 41.261 59.9064 40.994 59.9064C40.7155 59.9064 40.4685 59.97 40.2532 60.0972C40.0408 60.2216 39.8742 60.3899 39.7536 60.6019C39.6331 60.8111 39.5713 61.0444 39.5685 61.3017V62.3661C39.5685 62.6884 39.6288 62.9669 39.7493 63.2016C39.8728 63.4362 40.0465 63.6172 40.2704 63.7444C40.4944 63.8716 40.76 63.9353 41.0672 63.9353C41.271 63.9353 41.4576 63.907 41.627 63.8504C41.7964 63.7939 41.9414 63.7091 42.062 63.596C42.1826 63.4829 42.2745 63.3444 42.3376 63.1804L44.0345 63.2906C43.9483 63.6921 43.7718 64.0427 43.5047 64.3424C43.2406 64.6392 42.8989 64.8711 42.4798 65.0379C42.0634 65.2019 41.5825 65.2839 41.037 65.2839Z" fill="#F2F2F2"/>
<path d="M48.2593 65.2839C47.5817 65.2839 46.9989 65.1425 46.5108 64.8598C46.0256 64.5742 45.6523 64.1784 45.3911 63.6723C45.1327 63.1662 45.0035 62.5838 45.0035 61.9251C45.0035 61.2578 45.1341 60.6726 45.3954 60.1693C45.6595 59.6633 46.0342 59.2689 46.5194 58.9861C47.0046 58.7006 47.5817 58.5578 48.2507 58.5578C48.8278 58.5578 49.3331 58.661 49.7666 58.8674C50.2001 59.0738 50.5432 59.3636 50.7959 59.7368C51.0486 60.11 51.1878 60.5482 51.2136 61.0514H49.4824C49.4336 60.7263 49.3044 60.4648 49.0948 60.2669C48.8881 60.0661 48.6167 59.9658 48.2808 59.9658C47.9966 59.9658 47.7482 60.0421 47.5358 60.1948C47.3262 60.3446 47.1625 60.5637 47.0448 60.8521C46.9271 61.1405 46.8682 61.4897 46.8682 61.8996C46.8682 62.3152 46.9257 62.6686 47.0405 62.9598C47.1582 63.2511 47.3233 63.473 47.5358 63.6257C47.7482 63.7783 47.9966 63.8547 48.2808 63.8547C48.4904 63.8547 48.6785 63.8123 48.845 63.7275C49.0144 63.6426 49.1536 63.5196 49.2627 63.3585C49.3747 63.1945 49.4479 62.998 49.4824 62.769H51.2136C51.1849 63.2666 51.0471 63.7048 50.8002 64.0837C50.5562 64.4597 50.2188 64.7537 49.7881 64.9658C49.3575 65.1778 48.8479 65.2839 48.2593 65.2839Z" fill="#F2F2F2"/>
<path d="M54.2746 65.2796C53.8525 65.2796 53.4764 65.2075 53.1463 65.0633C52.8161 64.9163 52.5548 64.7 52.3624 64.4145C52.173 64.1261 52.0782 63.767 52.0782 63.3373C52.0782 62.9754 52.1457 62.6715 52.2806 62.4255C52.4156 62.1795 52.5993 61.9816 52.8319 61.8318C53.0644 61.6819 53.3286 61.5688 53.6243 61.4925C53.9229 61.4162 54.2358 61.3624 54.5631 61.3313C54.9479 61.2918 55.258 61.255 55.4934 61.2211C55.7288 61.1843 55.8996 61.1306 56.0059 61.0599C56.1121 60.9892 56.1652 60.8846 56.1652 60.7461V60.7207C56.1652 60.4521 56.0791 60.2443 55.9068 60.0972C55.7374 59.9502 55.4963 59.8767 55.1833 59.8767C54.8531 59.8767 54.5904 59.9488 54.3952 60.093C54.2 60.2344 54.0708 60.4125 54.0076 60.6274L52.3108 60.4916C52.3969 60.0958 52.5663 59.7537 52.819 59.4654C53.0716 59.1741 53.3975 58.9508 53.7966 58.7953C54.1985 58.637 54.6636 58.5578 55.1919 58.5578C55.5594 58.5578 55.9111 58.6002 56.247 58.685C56.5858 58.7698 56.8859 58.9013 57.1471 59.0794C57.4113 59.2575 57.6194 59.4866 57.7716 59.7665C57.9238 60.0435 57.9999 60.3757 57.9999 60.7631V65.1566H56.26V64.2533H56.2083C56.1021 64.4569 55.9599 64.6364 55.7819 64.7919C55.6039 64.9446 55.39 65.0647 55.1402 65.1524C54.8904 65.2372 54.6019 65.2796 54.2746 65.2796ZM54.8 64.0328C55.0699 64.0328 55.3082 63.9805 55.5149 63.8759C55.7216 63.7684 55.8839 63.6243 56.0016 63.4433C56.1193 63.2624 56.1781 63.0574 56.1781 62.8284V62.1371C56.1207 62.1739 56.0418 62.2078 55.9413 62.2389C55.8437 62.2672 55.7331 62.294 55.6097 62.3195C55.4862 62.3421 55.3627 62.3633 55.2393 62.3831C55.1158 62.4001 55.0039 62.4156 54.9034 62.4297C54.688 62.4608 54.5 62.5103 54.3392 62.5782C54.1784 62.646 54.0535 62.7379 53.9645 62.8538C53.8755 62.9669 53.831 63.1083 53.831 63.2779C53.831 63.5239 53.9215 63.7119 54.1023 63.842C54.2861 63.9692 54.5186 64.0328 54.8 64.0328Z" fill="#F2F2F2"/>
<path d="M0 70.3862V68.8722H7.24379V70.3862H4.54352V77.5575H2.70027V70.3862H0Z" fill="#2F80ED"/>
<path d="M7.71537 77.5575V71.0435H9.49401V72.1801H9.56292C9.68351 71.7758 9.88592 71.4704 10.1702 71.264C10.4544 71.0548 10.7817 70.9502 11.1521 70.9502C11.2439 70.9502 11.343 70.9559 11.4492 70.9672C11.5555 70.9785 11.6488 70.994 11.7292 71.0138V72.6169C11.643 72.5914 11.5239 72.5688 11.3717 72.549C11.2195 72.5292 11.0803 72.5193 10.954 72.5193C10.6841 72.5193 10.4429 72.5773 10.2304 72.6932C10.0209 72.8063 9.85434 72.9646 9.73088 73.1682C9.61029 73.3717 9.55 73.6064 9.55 73.8722V77.5575H7.71537Z" fill="#2F80ED"/>
<path d="M12.6777 77.5575V71.0435H14.5123V77.5575H12.6777ZM13.5993 70.2038C13.3266 70.2038 13.0926 70.1147 12.8973 69.9366C12.705 69.7557 12.6088 69.5394 12.6088 69.2878C12.6088 69.039 12.705 68.8255 12.8973 68.6474C13.0926 68.4664 13.3266 68.376 13.5993 68.376C13.8721 68.376 14.1046 68.4664 14.297 68.6474C14.4922 68.8255 14.5899 69.039 14.5899 69.2878C14.5899 69.5394 14.4922 69.7557 14.297 69.9366C14.1046 70.1147 13.8721 70.2038 13.5993 70.2038Z" fill="#2F80ED"/>
<path d="M15.982 80.0003V71.0435H17.7908V72.1376H17.8726C17.953 71.9624 18.0693 71.7842 18.2214 71.6033C18.3765 71.4195 18.5775 71.2669 18.8244 71.1453C19.0742 71.0209 19.3842 70.9587 19.7546 70.9587C20.237 70.9587 20.682 71.0831 21.0897 71.3319C21.4974 71.5779 21.8232 71.9496 22.0673 72.4472C22.3113 72.942 22.4333 73.5626 22.4333 74.309C22.4333 75.0356 22.3142 75.6491 22.0759 76.1495C21.8405 76.6471 21.5189 77.0246 21.1112 77.2819C20.7064 77.5363 20.2527 77.6635 19.7503 77.6635C19.3943 77.6635 19.0914 77.6056 18.8416 77.4897C18.5947 77.3737 18.3923 77.2281 18.2344 77.0528C18.0765 76.8747 17.9559 76.6952 17.8726 76.5143H17.8166V80.0003H15.982ZM17.7779 74.3005C17.7779 74.6878 17.8324 75.0257 17.9415 75.3141C18.0506 75.6025 18.2085 75.8272 18.4152 75.9884C18.622 76.1467 18.8732 76.2259 19.1689 76.2259C19.4675 76.2259 19.7202 76.1453 19.9269 75.9841C20.1336 75.8202 20.2901 75.594 20.3963 75.3056C20.5054 75.0144 20.56 74.6794 20.56 74.3005C20.56 73.9245 20.5068 73.5937 20.4006 73.3081C20.2944 73.0226 20.1379 72.7992 19.9312 72.6381C19.7245 72.4769 19.4704 72.3963 19.1689 72.3963C18.8703 72.3963 18.6177 72.4741 18.4109 72.6296C18.2071 72.7851 18.0506 73.0056 17.9415 73.2912C17.8324 73.5767 17.7779 73.9132 17.7779 74.3005Z" fill="#2F80ED"/>
<path d="M25.4911 68.8722V77.5575H23.6564V68.8722H25.4911Z" fill="#2F80ED"/>
<path d="M29.9754 77.6847C29.2949 77.6847 28.7092 77.549 28.2183 77.2776C27.7302 77.0034 27.3541 76.616 27.0899 76.1156C26.8258 75.6124 26.6937 75.0172 26.6937 74.3302C26.6937 73.6601 26.8258 73.0721 27.0899 72.566C27.3541 72.0599 27.7259 71.6655 28.2053 71.3828C28.6877 71.1 29.2533 70.9587 29.9022 70.9587C30.3386 70.9587 30.7448 71.0279 31.1209 71.1665C31.4999 71.3022 31.8301 71.5072 32.1115 71.7814C32.3957 72.0557 32.6168 72.4006 32.7747 72.8162C32.9326 73.229 33.0116 73.7124 33.0116 74.2666V74.7628H27.4258V73.6432H31.2846C31.2846 73.3831 31.2272 73.1526 31.1123 72.9519C30.9975 72.7512 30.8381 72.5943 30.6343 72.4812C30.4333 72.3652 30.1993 72.3073 29.9323 72.3073C29.6538 72.3073 29.4069 72.3709 29.1916 72.4981C28.9791 72.6225 28.8126 72.7907 28.692 73.0028C28.5714 73.212 28.5097 73.4453 28.5068 73.7025V74.767C28.5068 75.0893 28.5671 75.3678 28.6877 75.6025C28.8111 75.8371 28.9848 76.0181 29.2088 76.1453C29.4327 76.2725 29.6983 76.3361 30.0055 76.3361C30.2094 76.3361 30.396 76.3079 30.5654 76.2513C30.7348 76.1948 30.8798 76.11 31.0004 75.9969C31.1209 75.8838 31.2128 75.7452 31.276 75.5813L32.9728 75.6915C32.8867 76.093 32.7101 76.4436 32.4431 76.7433C32.1789 77.0401 31.8373 77.272 31.4181 77.4388C31.0018 77.6027 30.5209 77.6847 29.9754 77.6847Z" fill="#2F80ED"/>
<path fill-rule="evenodd" clip-rule="evenodd" d="M0 4.5542L19.2556 11.0284V39.5686L0 33.0945V4.5542ZM2.04716 7.37267V31.6526L17.2084 36.7502V12.4702L2.04716 7.37267Z" fill="#F2F2F2"/>
<path fill-rule="evenodd" clip-rule="evenodd" d="M9.25024 0L28.5058 6.47417V35.0144L9.25024 28.5403V0ZM11.2974 2.81847V27.0984L26.4586 32.196V7.91603L11.2974 2.81847Z" fill="#F2F2F2"/>
</svg>

<svg xmlns="http://www.w3.org/2000/svg" width="58" height="80" fill="none"><path fill="#F2F2F2" d="M.336 65.157V56.47h3.531q.974 0 1.624.284.651.285.978.79.327.5.327 1.153 0 .508-.207.895a1.8 1.8 0 0 1-.568.627 2.4 2.4 0 0 1-.819.344v.085q.503.02.944.28.443.258.719.725.276.462.275 1.102 0 .692-.348 1.234-.345.54-1.021.853-.675.314-1.667.314zM2.2 63.655h1.52q.78 0 1.137-.292a.97.97 0 0 0 .357-.79q0-.36-.176-.635a1.2 1.2 0 0 0-.504-.433 1.75 1.75 0 0 0-.771-.157H2.201zm0-3.55h1.382q.384 0 .68-.13.303-.136.474-.382a1 1 0 0 0 .177-.59.95.95 0 0 0-.34-.759q-.336-.288-.956-.288H2.2zM8.32 65.157v-6.514h1.834v6.514zm.921-7.354q-.41 0-.702-.267a.86.86 0 0 1-.289-.65q0-.372.289-.64a1 1 0 0 1 .702-.27q.409 0 .698.27a.854.854 0 0 1 0 1.29 1 1 0 0 1-.698.267M11.658 65.157V56.47h1.835v3.266h.056q.12-.263.349-.535.233-.275.603-.458.375-.186.93-.186.723 0 1.335.373.611.37.977 1.115.367.743.367 1.862 0 1.09-.358 1.84-.353.747-.965 1.133a2.5 2.5 0 0 1-1.36.382q-.535 0-.91-.174a1.9 1.9 0 0 1-.606-.437 2.2 2.2 0 0 1-.362-.539h-.082v1.044zm1.796-3.257q0 .58.164 1.013t.473.675q.31.237.754.237.448 0 .758-.242.31-.246.47-.678.163-.436.163-1.005 0-.564-.16-.993a1.5 1.5 0 0 0-.469-.67 1.2 1.2 0 0 0-.762-.242q-.448 0-.758.234-.306.233-.47.661t-.163 1.01M21.168 56.471v8.686h-1.834V56.47zM22.638 65.157v-6.514h1.835v6.514zm.922-7.354q-.41 0-.702-.267a.86.86 0 0 1-.289-.65q0-.372.289-.64a1 1 0 0 1 .702-.27q.409 0 .697.27a.854.854 0 0 1 0 1.29 1 1 0 0 1-.697.267M28.931 65.284q-1.004 0-1.736-.42a2.9 2.9 0 0 1-1.124-1.179q-.396-.76-.396-1.76 0-1.009.396-1.764.398-.76 1.124-1.18.732-.423 1.736-.423t1.731.424q.732.42 1.129 1.179.396.754.396 1.764 0 1-.396 1.76-.396.755-1.129 1.179-.728.42-1.731.42m.009-1.4q.456 0 .762-.254.306-.259.46-.704.16-.445.16-1.014 0-.568-.16-1.013a1.6 1.6 0 0 0-.46-.704 1.14 1.14 0 0 0-.762-.259 1.18 1.18 0 0 0-.776.259 1.6 1.6 0 0 0-.469.704 3.1 3.1 0 0 0-.155 1.013q0 .57.155 1.014.16.445.47.704.313.255.775.254M36.898 58.643V60h-3.983v-1.357zm-3.079-1.561h1.835v6.073q0 .25.077.39.078.136.216.19a.9.9 0 0 0 .327.056q.129 0 .258-.021l.198-.038.289 1.344q-.138.041-.388.098-.25.06-.607.072-.663.025-1.163-.174a1.6 1.6 0 0 1-.77-.62q-.276-.42-.272-1.06zM41.037 65.284q-1.02 0-1.757-.407a2.8 2.8 0 0 1-1.128-1.162q-.397-.756-.397-1.786 0-1.005.397-1.764.396-.759 1.115-1.183.723-.424 1.697-.424a3.5 3.5 0 0 1 1.219.208q.568.203.99.614.426.413.663 1.035.237.62.237 1.45v.497h-5.586v-1.12h3.86q0-.39-.173-.691a1.23 1.23 0 0 0-.478-.47 1.4 1.4 0 0 0-.702-.175q-.419 0-.74.191a1.35 1.35 0 0 0-.5.505q-.181.314-.185.7v1.064q0 .483.18.836.185.351.521.542t.797.191q.306 0 .56-.085.254-.083.435-.254.18-.17.276-.416l1.697.11a2.27 2.27 0 0 1-.53 1.052 2.66 2.66 0 0 1-1.025.696q-.625.246-1.443.246M48.26 65.284q-1.017 0-1.75-.424a2.9 2.9 0 0 1-1.119-1.188q-.387-.759-.387-1.747 0-1 .391-1.756.397-.759 1.124-1.183.729-.428 1.732-.428.865 0 1.516.31.65.31 1.029.869.38.56.418 1.314h-1.732a1.3 1.3 0 0 0-.387-.784q-.31-.3-.814-.301-.426 0-.745.229-.315.225-.491.657-.177.433-.177 1.048 0 .623.172 1.06.177.436.496.666.318.228.745.229.315 0 .564-.127.255-.127.418-.37a1.4 1.4 0 0 0 .22-.589h1.73a2.64 2.64 0 0 1-.413 1.315q-.366.564-1.012.882-.645.318-1.529.318M54.275 65.28q-.633 0-1.129-.217a1.8 1.8 0 0 1-.784-.648q-.284-.433-.284-1.078 0-.543.203-.912.202-.368.55-.593.35-.225.793-.34a6 6 0 0 1 .94-.16q.576-.06.93-.11.353-.056.512-.162a.35.35 0 0 0 .16-.314v-.025q0-.403-.26-.624-.253-.22-.723-.22-.495 0-.788.216a1 1 0 0 0-.387.534l-1.697-.135q.129-.594.508-1.027.379-.436.978-.67.603-.237 1.395-.237.551 0 1.055.127.508.127.9.394.396.267.625.688.228.415.228.996v4.394h-1.74v-.904h-.052a1.8 1.8 0 0 1-.426.539 2 2 0 0 1-.642.36 2.7 2.7 0 0 1-.865.128m.525-1.247q.405 0 .715-.157a1.26 1.26 0 0 0 .487-.433q.176-.27.176-.615v-.69a1 1 0 0 1-.237.1 4 4 0 0 1-.331.081q-.186.034-.37.064l-.337.047q-.323.045-.564.148a.9.9 0 0 0-.374.276.67.67 0 0 0-.134.424q0 .369.271.564.276.19.698.19"/><path fill="#2F80ED" d="M0 70.386v-1.514h7.244v1.514h-2.7v7.172H2.7v-7.172zM7.715 77.558v-6.515h1.779v1.137h.069q.18-.606.607-.916.426-.314.982-.314a3 3 0 0 1 .577.064v1.603a2.4 2.4 0 0 0-.357-.068 3 3 0 0 0-.418-.03q-.405 0-.724.174-.314.17-.5.475-.18.306-.18.704v3.686zM12.678 77.558v-6.515h1.834v6.514zm.921-7.354q-.408 0-.702-.267a.86.86 0 0 1-.288-.65q0-.373.288-.64a1 1 0 0 1 .702-.271q.41 0 .698.271a.855.855 0 0 1 0 1.29 1 1 0 0 1-.698.267M15.982 80v-8.957h1.809v1.095h.082q.12-.264.348-.535.233-.275.603-.458.375-.186.93-.186.724 0 1.336.373.61.37.977 1.115.366.743.366 1.862 0 1.09-.357 1.84-.354.747-.965 1.133a2.5 2.5 0 0 1-1.36.382q-.535 0-.91-.174a1.9 1.9 0 0 1-.607-.437 2.2 2.2 0 0 1-.361-.539h-.056V80zm1.796-5.7q0 .582.164 1.014t.473.674q.31.238.754.238.448 0 .758-.242.31-.246.47-.678.163-.438.163-1.005a2.8 2.8 0 0 0-.16-.993 1.5 1.5 0 0 0-.469-.67 1.2 1.2 0 0 0-.762-.242q-.448 0-.758.234-.305.233-.47.661-.163.428-.163 1.01M25.491 68.872v8.686h-1.835v-8.686zM29.975 77.685q-1.02 0-1.757-.407a2.8 2.8 0 0 1-1.128-1.162q-.396-.756-.396-1.786 0-1.005.396-1.764t1.115-1.183q.724-.424 1.697-.424.655 0 1.219.207.57.204.99.615.427.413.664 1.035.237.62.237 1.45v.497h-5.586v-1.12h3.859q0-.39-.173-.691a1.23 1.23 0 0 0-.478-.47 1.4 1.4 0 0 0-.702-.175q-.417 0-.74.191a1.35 1.35 0 0 0-.5.505q-.18.313-.185.7v1.064q0 .483.18.836.186.351.522.542.336.19.797.191.305 0 .56-.085.254-.084.434-.254t.276-.416l1.697.11a2.27 2.27 0 0 1-.53 1.052 2.66 2.66 0 0 1-1.025.696q-.624.246-1.443.246"/><path fill="#F2F2F2" fill-rule="evenodd" d="m0 4.554 19.256 6.474v28.54L0 33.095zm2.047 2.819v24.28l15.161 5.097V12.47z" clip-rule="evenodd"/><path fill="#F2F2F2" fill-rule="evenodd" d="m9.25 0 19.256 6.474v28.54L9.25 28.54zm2.047 2.818v24.28l15.162 5.098V7.916z" clip-rule="evenodd"/></svg>
